watering-can.svg

<svg fill="currentColor" viewBox="0 0 24 24"><path d="M18.5 7.47c-.74.73-.93 1.78-.58 2.68L15 13.07V11c0-.55-.45-1-1-1h-1.03c.03-.17.03-.33.03-.5C13 6.46 10.54 4 7.5 4A5.497 5.497 0 0 0 4 13.74V20c0 .55.45 1 1 1h9c.55 0 1-.45 1-1v-4.11l4.33-4.33c.9.35 1.95.17 2.67-.56zM4.05 10C4.03 9.83 4 9.67 4 9.5 4 7.57 5.57 6 7.5 6S11 7.57 11 9.5c0 .17-.03.33-.05.5z"/></svg>

<svg  viewBox="0 0 24 24" fill="currentColor"><path  d="M18.5 7.47C17.76 8.2 17.57 9.25 17.92 10.15L15 13.07V11C15 10.45 14.55 10 14 10H12.97C13 9.83 13 9.67 13 9.5C13 6.46 10.54 4 7.5 4S2 6.46 2 9.5C2 11.21 2.78 12.73 4 13.74V20C4 20.55 4.45 21 5 21H14C14.55 21 15 20.55 15 20V15.89L19.33 11.56C20.23 11.91 21.28 11.73 22 11L18.5 7.47M4.05 10C4.03 9.83 4 9.67 4 9.5C4 7.57 5.57 6 7.5 6S11 7.57 11 9.5C11 9.67 10.97 9.83 10.95 10H4.05Z"/></svg>
